X: 35463
T: Rowling Hornpipe
R: three-two
M: 3/2
K: Dmajor
|:AFDF GECE D2 EF|GFED C2 E2 DEFD|
AFDF GECE D2d2|AGFE D2F2EFGE:|
|:ABcA BcdB c2 BA|GFED C2 E2 DEFD|
ABcA fedc d2 cB|AGFE D2F2EFGE:|
|:fgaf efge d2 df|efge c2 ce defd|
fgaf efge d2 cB|AGFE D2 F2 EFGE:|
|:AFAF BGBG A2GF|GFED C2E2 DEFD|
AFAF BGBG BdcB|AGFE D2F2 EFGE:|

